X:1
T:In Storm and Sunshine
T:In Storm and Sunshine
T:Concert Paraphrase
T:J. C. Heed
T:Arr. by Dekkadeci
C:J. C. Heed
Z:Arr. by Jaclyn Chang
%%score { ( 1 3 ) | ( 2 4 ) }
L:1/8
Q:3/8=172
M:6/8
K:Ab
V:1 treble nm="Piano" snm="Pno."
V:3 treble 
V:2 bass 
V:4 bass 
V:1
"^Allegro con brio"!ff! !>![Aa]3- [Aa][Gg][Ff] | [Ee][Ff][Ee] [Dd][Cc][B,B] | %2
 [A,A][G,G][A,A] [Cc][B,B][A,A] | [G,G]2 [Cc] [F,F]2 z | !>![Ff]3- [Ff][Ee][Dd] | %5
 [Cc][Dd][Cc] [B,B][A,A][G,G] | [F,F][=E,=E][F,F] [A,A][G,G][F,F] | %7
 [=E,=E]2 [G,G][K:bass] [C,C]2 z |[K:treble] (!>!=B6 | [=EGc]2) [Cc]/[Cc]/ [Cc][Cc][Cc] | (!>!=B6 | %11
 [=EGc]2) z4 | C[=Ec]=d [G=e]fg | [ca]gf{/g} [Af]=ef | [cg]2 z !>![c=ec']2 z | z6 | !>![cf]6 | %17
 c3- c2 A | G3 [Gc]3 | F3- F2 F | B3 c3 | [Bd]3 [df]3 | [df]3- [df]2 e | e2 z =e3 | %24
{/F} f2 (3(c'/=d'/=e'/ [c'f']2) (a/b/ | [fc'])(ab [fc'])ba | [=eg]^fg [ec']=bc' | %27
 [Fcf](c'/b/a/g/ [cf]) z [Fcf] | [fb]=ab [ec']bc' | [fd']c'd' [f=d']^c'd' | %30
 [ebe'][=d=d'][ee'] [=eb=e'][ff'][gg'] | [ac'e'a']2 [Aa]/[Aa]/ [Acea]2 z | %32
 !>![Acea]3- [Acea][Gg][Ff] | [Ee][Ff][Ee] [Dd][Cc][B,B] | [A,A][G,G][A,A] [Cc][B,B][A,A] | %35
 [G,G]2 [Cc] [F,F]2 z | !>![FAcf]3- [FAcf][Ee][Dd] | [Cc][Dd][Cc] [B,B][A,A][G,G] | %38
 [F,F][=E,=E][F,F] [A,A][G,G][F,F] | [=E,=E]2 [G,G][K:bass] [C,C]2 z |[K:treble] (!>![D=B]6 | %41
 [C=EGc]2) [Cc]/[Cc]/ [Cc][Cc][Cc] | (!>![D=B]6 | [C=EGc]2) z4 | [G,C][=Ec][F=d] [Gc=e][Af][Bg] | %45
 [cfa][Bg][Af]{/g} [Adf][G=e][Af] | [c=eg]2 z !>![cegc']2 z |!mf! z6 |!ff! !>![FAcf]6 | %49
 [FAc]3- [FAc]2 [FA] | [B,C=EG]3 [CEGc]3 | [A,CF]3- [A,CF]2 [A,CF] | [DFB]3 [EF=Ac]3 | %53
 [FBd]3 [FBdf]3 | [GBdef]3- [GBdef]2 [GBde] | [GBde]2 z [GBc=e]3 | %56
{/FAc} f2 (3(c'/=d'/=e'/ [c'f']2) (a/b/ | [fc'])(ab [fc'])ba | [=eg]^fg [ec']=bc' | %59
 [Fcf](c'/b/a/g/ [cf]) z [Fcf] | [fb]=ab [ec']bc' | [fd']c'd' [f=d']^c'd' | %62
 [ebe'][=d=d'][ee'] [=eb=e'][ff'][gg'] | [ac'e'a']2 [aa']/[aa']/ [ac'e'a']2 z | c3- cdc | a3- agf | %66
 =ec=d efg | aag f2 z | c3- cdc | a3- agf | f=ef agf | [c=egc']2 z[K:bass] z A,G, | %72
 F,=E,F, A,G,F, | C2 z[K:treble] z2!>(! [cc']/[cc']/ | [cc']2 [=EG] [EG]2 [cc']/[cc']/ | %75
 [cc']2 [FA] [FA]2 [cc']/[cc']/ | [cc']2 [=EG] [FA]2 [^F=A] | [GB]2 z!>)!!p! [cc']2 [cc'] | %78
 c'3- c'=a(f | =d'2) z c'2 c' | c'3- c'g(=e | =d'2) z c'2 c' | =e'3- e'f'^f' | g'3- g'=a'=e' | %84
 g'3- g'f'(=a | =d'2) z c'2 c' | c'3- c'=a((f | =d'2)) z c'2 c' | c'3- c'g((=e | =d'2)) z c'2 c' | %90
 =e'3- e'f'^f' | =a'3- a'g'c' | f'6- | [=ac'f']2!ff! [Cc]/[Cc]/ [Cc][Cc][Cc] | c3- cdc | a3- agf | %96
 =ec=d efg | aag f2 z | c3- cdc | a3- agf | f=ef agf | [c=egc']2 z[K:bass] z A,G, | %102
 F,=E,F, A,G,F, | C2 z[K:treble] z2 [cc']/[cc']/ | [cc']2 [=EG] [EG]2 [cc']/[cc']/ | %105
 [cc']2 [FA] [FA]2 [cc']/[cc']/ | [cc']2 [=EG] [FA]2 [^F=A] | [GB]2 z!p! [c=egc']2 [cegc'] | %108
 [cf=ac']3- [cfac'][fa](f | [=df=a=d']2) z [cfac']2 [cfac'] | [c=egc']3- [cegc'][eg](e | %111
 [=d=eg=d']2) z [cegc']2 [cegc'] | [=egc'=e']3- [egc'e'][c'f']^f' | %113
 [gc'=e'g']3- [gc'e'g'][e'=a']e' | [g=ac'g']3- [gac'g'][c'f'](a | [=df=a=d']2) z [cfac']2 [cfac'] | %116
 [cf=ac']3- [cfac'][fa]((f | [=df=a=d']2)) z [cfac']2 [cfac'] | [c=egc']3- [cegc'][eg]((e | %119
 [=d=eg=d']2)) z [cegc']2 [cegc'] | [=egc'=e']3- [egc'e'][c'f']^f' | %121
 [=ac'=e'=a']3- [ac'e'a'][c'g']c' | [f=ac'f']6- | [fac'f']2 z!ff! z z2 | %124
 z [fac'f'][fac'f'] [fac'f']2 z | z [fac'f'][fac'f'] [fac'f']2 z | z [fac'f'][fac'f'] [fac'f']2 z | %127
 z [fac'f'][fac'f'] [fac'f']2 z | z [fbd'f'][fbd'f'] z [f=ac'e'f'][fac'e'f'] | %129
 z [fbd'f'][fbd'f'] z [fac'f'][fac'f'] | z [=egc'=e'][egc'e'] [egc'e'][egc'e'][egc'e'] | %131
 z [=egc'=e'][egc'e'] [egc'e'][egc'e'][egc'e'] | z [fac'f'][fac'f'] [fac'f']2 z | %133
 z [fac'f'][fac'f'] [fac'f']2 z | z [fac'f'][fac'f'] [fac'f']2 z | z [fac'f'][fac'f'] [fac'f']2 z | %136
 z [fbd'f'][fbd'f'] z [f=ac'e'f'][fac'e'f'] | z [fbd'f'][fbd'f'] z [fa=bf'][fabf'] | %138
 z [=egc'=e'][egc'e'] [egc'e'][egc'e'][egbc'e'] | [fac'f']2 z z z2 | z [ff'][faf'] [fc'f']2 z | %141
 z [fc'f'][faf'] [fc'f']2 z | z [ff'][faf'] [fc'f']2 z | z [fc'f'][faf'] [fc'f']2 z | %144
 z [fbf'][fd'f'] z [fc'f'][f=af'] | z [fbf'][fd'f'] z [fc'f'][faf'] | %146
 z [=e=e'][ege'] [ec'e'][ege'][ee'] | z [=e=e'][ege'] [ec'e'][ege'][ee'] | %148
 z [ff'][faf'] [fc'f']2 z | z [fc'f'][faf'] [fc'f']2 z | z [ff'][faf'] [fc'f']2 z | %151
 z [fc'f'][faf'] [fc'f']2 z | z [fbf'][fd'f'] z [fc'f'][f=af'] | %153
 z [fbf'][fd'f'] z [f=d'f'][f=bf'] | z [=e=e'][ege'] [ec'e'][ege'][ee'] | %155
 [fc'f'][Cc]/[Cc]/[Cc] [Cc][Cc][Cc] | c=Bc d=d=e | [FAcf][Cc]/[Cc]/[Cc] [Cc][Cc][Cc] | c=Bc d=d=e | %159
 [FAcf]2 z z2 z/ [FAcf]/ | !>![FAcf]2 z !>![FAcf]2 z | !>![FAcf]2 z4 | !>![Acea]6 | %163
 e(=d/e/f/e/) (d/f/e/_d/c/B/) | [A,CEA]2!>(! [A,C] [A,CE]2 [A,C]!>)! |!mp! A,2 z!p! [ce]2 [df] | %166
 ([ce]6 | [Ac]2) (3(A/B/A/) G2 A | ([ce]6 | [Ac]2) z [ce]2 [df] | [eg]6- | [eg]2 [df] [Bd]2 [df] | %172
 [ce]6- | [ce]2 z [ce]2 [df] | ((([ce]6 | [Ac]2))) (3(((A/B/A/))) G2 A | ((([ce]6 | %177
 [Ac]2))) [Ac] ([Bd]2 [Ac]) | [ABc-]6 | ([Gc]2 [GB]) ([GB]2 E) | [EA]6- | %181
 [CEA]2 z!ff! [EAce]2 [FAdf] | ([ce]6 | [Ac]2) (3(A/B/A/) G2 A | (([ce]6 | %185
 [EAc]2)) E [EAce]2 [FAdf] | [eg]6- | [GBeg]2 [FBdf] [GBd]2 [GBdf] | [ce]6- | %189
 [EAce]2 E [EAce]2 [FAdf] | (([ce]6 | [Ac]2)) (3((A/B/A/)) G2 A | ((([ce]6 | %193
 [EAc]2))) [EAc] ([F=Ad]2 [E_Ac]) | [ABc-]6 | ([DGc]2 [DEGB]) ([DEGB]2 [DE]) | [CEA]6- | %197
 [CEA]2 z !>![Acea]2 z |] %198
V:2
 !>![A,,A,]3- [A,,A,][G,,G,][F,,F,] | [E,,E,][F,,F,][E,,E,] [D,,D,][C,,C,][B,,,B,,] | %2
 [A,,,A,,][G,,,G,,][A,,,A,,] [C,,C,][B,,,B,,][A,,,A,,] | [G,,,G,,]2 [C,,C,] [F,,,F,,]2 z | %4
 !>![F,,F,]3- [F,,F,][E,,E,][D,,D,] | [C,,C,][D,,D,][C,,C,] [B,,,B,,][A,,,A,,][G,,,G,,] | %6
 [F,,,F,,][=E,,,=E,,][F,,,F,,] [A,,,A,,][G,,,G,,][F,,,F,,] | [=E,,,=E,,]2 [G,,,G,,] [C,,,C,,]2 z | %8
 [D,,A,,D,]6 | [C,,G,,C,]2 z4 | [D,,A,,D,]6 | [C,,G,,C,]2 z4 | [C,,G,,C,]2 z4 | %13
 [F,,C,F,]2 z [F,,A,,F,]3 | [C,,G,,C,]2 z !>![C,,G,,C,]2 z | z6 | [F,,C,]2 z [F,,C,]2 z | %17
 [F,,C,]2 z [F,,C,]2 z | [=E,,C,]2 z [C,,E,,C,]2 z | [F,,C,]2 z [F,,C,]2 z | %20
 [B,,D,]2 z [=A,,C,]2 z | [B,,D,]2 z [A,,D,]2 z | [G,,B,,]2 z G,,A,,=A,, | E,,2 z [G,,C,]=D,=E, | %24
 [F,,C,F,]2 z [F,,C,]2 z | [F,,C,]2 z [F,,C,]2 z | [=E,,C,]2 z [C,,E,,C,]2 z | %27
 [F,,C,]2 z [F,,C,]2 z | [B,,D,]2 z [=A,,C,]2 z | [B,,D,]2 z [A,,B,,=D,]2 z | %30
 [G,,E,]2 z [E,,G,,E,]2 z | [A,,E,]2 [A,,E,]/[A,,E,]/ [A,,E,]2 z | %32
 !>![A,,C,E,A,]2 [A,,,A,,]/[A,,,A,,]/ [A,,,A,,][G,,G,][F,,F,] | %33
 [E,,E,][F,,F,][E,,E,] [D,,D,][C,,C,][B,,,B,,] | %34
 [A,,,A,,][G,,,G,,][A,,,A,,] [C,,C,][B,,,B,,][A,,,A,,] | [G,,,G,,]2 [C,,C,] [F,,,F,,]2 z | %36
 !>![F,,A,,C,F,]2 [F,,,F,,]/[F,,,F,,]/ [F,,,F,,][E,,E,][D,,D,] | %37
 [C,,C,][D,,D,][C,,C,] [B,,,B,,][A,,,A,,][G,,,G,,] | %38
 [F,,,F,,][=E,,,=E,,][F,,,F,,] [A,,,A,,][G,,,G,,][F,,,F,,] | [=E,,,=E,,]2 [G,,,G,,] [C,,,C,,]2 z | %40
 [D,,D,]6 | [C,,=E,,G,,C,]2 [C,,C,]/[C,,C,]/ [C,,C,][C,,C,][C,,C,] | [D,,D,]6 | %43
 [C,,=E,,G,,C,]2 z4 | [C,,G,,C,]2 z4 | [F,,C,F,]2 z [F,,A,,D,F,]3 | %46
 [C,,G,,C,]2 z !>![C,,G,,C,]2 z | [C,,C,]!<(![D,,D,][=D,,=D,] [D,,D,][E,,E,][=E,,=E,]!<)! | %48
 [F,,C,F,]2 [F,,C,]/[F,,C,]/ [F,,C,][C,,F,,][F,,C,] | %49
 [F,,C,][C,,F,,][C,,F,,] [F,,C,][C,,F,,][F,,C,] | [C,,C,][C,,G,,][C,,G,,] [C,,C,][C,,G,,][C,,C,] | %51
 [F,,C,][C,,F,,][C,,F,,] [F,,,F,,][C,,F,,][F,,C,] | %52
 [B,,F,][B,,D,][B,,,B,,] [C,,=A,,][F,,A,,][F,,C,] | %53
 [B,,D,][F,,B,,][B,,,B,,] [B,,,A,,][D,,A,,][F,,B,,] | %54
 [G,,B,,][E,,B,,E,][F,,F,] [G,,E,G,][A,,A,][=A,,=A,] | %55
 [B,,E,B,][G,,G,][B,,B,] [C,G,C][=D,=D][=E,=E] | %56
 [F,CF][F,,F,][F,,C,]/[F,,C,]/ [F,,C,][C,,F,,][F,,,F,,] | %57
 [F,,,F,,][C,,F,,][F,,C,] [F,,C,][F,,F,][F,,C,] | %58
 [C,,C,][C,,G,,][G,,,C,,] [C,,,C,,][G,,,C,,][C,,G,,] | %59
 [C,,F,,][F,,,F,,][C,,F,,] [F,,C,][C,,F,,][F,,,F,,] | %60
 [F,,B,,F,]2 [B,,,B,,]/[B,,,B,,]/ [F,,C,F,]2 [=A,,,=A,,]/[A,,,A,,]/ | %61
 [F,,B,,F,]2 [B,,,B,,]/[B,,,B,,]/ [F,,B,,F,]2 [A,,,A,,]/[A,,,A,,]/ | %62
 [G,,B,,G,]E,B,, [B,,,E,,G,,]B,,E, | [A,,E,A,]2 E,/C,/ [A,,,E,,A,,]2 z | %64
 [C,,G,,C,][=E,,G,,C,][G,,C,] [C,,G,,C,]2 z | [F,,A,,C,][A,,C,]C, [F,,C,F,]2 z | %66
 [C,G,]2 [=B,,=D,G,] [_B,,C,G,][A,,C,][G,,B,,C,] | [F,,A,,C,]2 [C,,=E,,B,,C,] [F,,A,,C,]2 z | %68
 [C,,G,,C,][=E,,G,,C,][G,,C,] [C,,G,,C,]2 z | [F,,A,,C,][A,,C,]C, [F,,C,F,]2 z | %70
 [D,,A,,D,]2 z [D,,A,,=B,,D,]3 | [C,,G,,C,]2 z z A,,G,, | F,,=E,,F,, A,,G,,F,, | C,2 z4 | %74
 z2 C C2 z | z2 C C2 z | z2 C C2 C | C2 z4 | F,,2 C,, [C,,F,,]2 =A,, | [F,,=D,]2 z [C,,C,]2 z | %80
 G,,2 C,, [C,,=E,,]2 G,, | [=E,,=D,]2 z [C,,C,]2 z | C,6 | =E,3 C,2 B,, | %84
 [F,,=A,,]2 A,, [C,,C,]F,A,, | [F,,=D,]2 z [C,,C,]2 z | z =A,,,C,, F,,=A,,F,, | %87
 [F,,=D,]2 z [C,,C,]2 z | z G,,C,, =E,,G,,E,, | [=E,,=D,]2 z [C,,C,]2 z | C,6 | C,3- C,2 B,, | %92
 [F,,=A,,]2 F, C,2 A,, | F,,2 z4 | [C,,G,,C,][=E,,G,,C,][G,,C,] [C,,G,,C,][C,,E,,C,][C,,G,,C,] | %95
 [F,,A,,C,][A,,C,]C, [F,,C,F,][F,,A,,F,][F,,C,F,] | %96
 [C,,G,,C,][C,G,][=B,,=D,G,] [_B,,C,G,][A,,C,][G,,B,,C,] | %97
 [F,,A,,C,][F,,,C,,F,,][C,,=E,,B,,C,] [F,,A,,C,]2 z | %98
 [C,,G,,C,][=E,,G,,C,][G,,C,] [C,,G,,C,][C,,E,,C,][C,,G,,C,] | %99
 [F,,A,,C,][A,,C,]C, [F,,C,F,][F,,A,,F,][F,,C,F,] | %100
 [D,,A,,D,][D,,F,,A,,][D,,A,,D,] [D,,A,,=B,,D,][D,,F,,A,,][D,,B,,D,] | %101
 [C,,G,,C,]2 z z [A,,,A,,][G,,,G,,] | [F,,,F,,][=E,,,=E,,][F,,,F,,] [A,,,A,,][G,,,G,,][F,,,F,,] | %103
 [C,,C,]2 z4 | z2 C C2 z | z2 C C2 z | z2 C C2 C | C2 z4 | [F,,C,F,]F,,C,, [F,,C,]2 F,, | %109
 [F,,=D,]2 =B,, [=E,,C,]2 G,, | [C,,G,,C,]=E,,G,, [G,,C,]2 E,, | [=E,,=D,]2 =B,, [E,,C,]2 G,, | %112
 [C,,G,,C,]=E,,G,, C,G,,E,, | [=E,,G,,C,]G,,C, =E,C,G,, | [F,,=A,,C,]A,,C, F,C,A,, | %115
 [F,,C,]2 =B,, [F,,C,]2 F,, | [F,,C,]F,,C,, [F,,C,]2 F,, | [F,,=D,]2 =B,, [=E,,C,]2 G,, | %118
 [C,,G,,C,]=E,,G,, [G,,C,]2 E,, | [=E,,=D,]2 =B,, [E,,C,]2 G,, | [C,,G,,C,]=E,,G,, C,G,,E,, | %121
 [=E,,G,,C,]G,,C, =E,C,G,, | [F,,=A,,C,]A,,C, [F,,C,F,]C,A,, | [F,,C,]2 z [C,,C,]2 [C,,C,] | %124
 [F,,F,]3- [F,,F,][=E,,=E,][F,,F,] | [A,,A,]3- [A,,A,][G,,G,][A,,A,] | %126
 [C,C]3- [C,C][A,,A,][G,,G,] | [F,,F,]3- [F,,F,][F,,F,][F,,F,] | %128
 [B,,B,][=A,,=A,][B,,B,] [C,C][B,,B,][C,C] | [D,D][E,E][D,D] [C,C][B,,B,][A,,A,] | %130
 [G,,G,]3- [G,,G,][A,,A,][G,,G,] | [C,C]2 z [C,,C,]2 [C,,C,] | [F,,F,]3- [F,,F,][=E,,=E,][F,,F,] | %133
 [A,,A,]3- [A,,A,][G,,G,][A,,A,] | [C,C]3- [C,C][A,,A,][G,,G,] | [F,,F,]3- [F,,F,][F,,F,][F,,F,] | %136
 [B,,B,][=A,,=A,][B,,B,] [C,C][B,,B,][C,C] | [D,D][C,C][B,,B,] [A,,A,][G,,G,][F,,F,] | %138
 [G,,G,]3- [G,,G,][=E,,=E,][C,,C,] | [F,,F,]2 z [C,,=E,,G,,C,]2 [C,,C,] | %140
 [F,,A,,C,F,]3- [F,,A,,C,F,][=E,,=E,][F,,F,] | [A,,C,F,A,]3- [A,,C,F,A,][G,,G,][A,,A,] | %142
 [C,F,A,C]3- [C,F,A,C][A,,A,][G,,G,] | [F,,A,,C,F,]3- [F,,A,,C,F,][F,,F,][F,,F,] | %144
 [B,,D,F,B,][=A,,=A,][B,,B,] [C,E,F,A,C][B,,B,][C,C] | %145
 [D,F,B,D][E,E][D,D] [C,F,A,C][B,,B,][A,,A,] | [G,,C,=E,G,]3- [G,,C,E,G,][A,,A,][G,,G,] | %147
 [C,=E,G,C]2 z [C,,=E,,G,,C,]2 [C,,C,] | [F,,A,,C,F,]3- [F,,A,,C,F,][=E,,=E,][F,,F,] | %149
 [A,,C,F,A,]3- [A,,C,F,A,][G,,G,][A,,A,] | [C,F,A,C]3- [C,F,A,C][A,,A,][G,,G,] | %151
 [F,,A,,C,F,]3- [F,,A,,C,F,][F,,F,][F,,F,] | [B,,D,F,B,][=A,,=A,][B,,B,] [C,E,F,A,C][B,,B,][C,C] | %153
 [D,F,B,D][C,C][B,,B,] [A,,=B,,=D,F,A,][G,,G,][F,,F,] | [G,,C,=E,G,]3- [G,,C,E,G,][=E,,E,][C,,C,] | %155
 [F,,A,,C,F,]2 z4 | [C,,G,,C,]2 z [C,,G,,B,,C,]3 | [F,,C,]2 z4 | [C,,G,,C,]2 z [C,,G,,B,,C,]3 | %159
 [F,,C,]2 z z2 z/ [F,,C,F,]/ | !>![C,,F,,C,]2 z !>![A,,,F,,A,,]2 z | !>![F,,,C,,F,,]2 z4 | %162
 !>![A,,,E,,A,,]6 | [E,,G,,B,,]2 z [E,,G,,B,,D,]3 | [A,,,A,,]2 [C,,A,,] [E,,A,,]2 [C,,A,,] | %165
 [A,,,A,,]2 z4 | A,,2 E,, [E,,A,,]2 C, | [A,,E,]2 z E,,2 z | A,,2 E,, [E,,A,,]2 C, | %169
 [A,,E,]2 z E,,2 z | B,,2 z B,,D,E, | [B,,G,]2 F, [E,,D,]2 F, | E,2 F, E,C,A,, | [E,,E,]3 C,3 | %174
 A,,2 E,, [E,,A,,]2 C, | [A,,E,]2 z E,,2 z | A,,2 E,, [E,,A,,]2 C, | [A,,E,]2 E, [F,,=A,,F,]2 E, | %178
 =D,6 | D,6 | [A,,C,]C,E, A,E,C, | A,,2 z4 | [A,,E,]2 [C,,C,] [E,,A,,E,][A,,A,][C,C] | %183
 [E,A,]2 E,, [E,,A,,E,]2 E,, | [A,,E,]2 [C,,C,] [E,,A,,E,][A,,A,][C,C] | %185
 [E,A,]2 E,, [E,,A,,E,]2 F,, | [E,,B,,]2 [G,,,G,,] [B,,,G,,B,,][D,,D,][E,,E,] | %187
 [G,,E,G,]2 [F,,F,] [D,,G,,D,]2 [F,,F,] | [E,,A,,E,]2 [F,,F,] [E,,A,,E,][C,,C,][A,,,A,,] | %189
 [E,,,A,,,E,,]2 E,, [E,,A,,E,]2 F,, | [A,,E,]2 [C,,C,] [E,,A,,E,][A,,A,][C,C] | %191
 [E,A,]2 E,, [E,,A,,E,]2 E,, | [A,,E,]2 [C,,C,] [E,,A,,E,][A,,A,][C,C] | %193
 [E,A,]2 [E,,E,] [F,,D,F,]2 [E,,E,] | [=D,,=D,]6 | [D,,D,]6 | %196
 [C,,A,,C,][C,,C,][E,,E,] [A,,E,A,][E,,E,][C,,C,] | [A,,,E,,A,,]2 z !>![A,,,C,,E,,A,,]2 z |] %198
V:3
 x6 | x6 | x6 | x6 | x6 | x6 | x6 | x3[K:bass] x3 |[K:treble] [FA][FA][FA] [FA][FA][FA] | x6 | %10
 [FA][FA][FA] [FA][FA][FA] | x6 | x6 | x6 | x6 | x6 | [FA]2 [FA] [FA]2 [FA] | [FA]2 [FA] [FA]2 F | %18
 =E2 E E2 E | C2 C C2 C | [DF]2 [DF] [EF]2 [EF] | F2 F F2 F | [GB]2 [GB] [GB]2 [GB] | %23
 [GB]2 G [GB]3 | f6 | c3- c2 A | G3 c3 | x6 | B3 c3 | d3 =d3 | x6 | x6 | x6 | x6 | x6 | x6 | x6 | %37
 x6 | x6 | x3[K:bass] x3 |[K:treble] [FA][FA][FA] [FA][FA][FA] | x6 | [FA][FA][FA] [FA][FA][FA] | %43
 x6 | x6 | x6 | x6 | x6 | x6 | x6 | x6 | x6 | x6 | x6 | x6 | x6 | f6 | c3- c2 A | G3 c3 | x6 | %60
 B3 c3 | d3 =d3 | x6 | x6 | [=EG][EG][EG] [EG]2 z | [Acf][Acf][Acf] [Acf]2 z | %66
 [=EG]2 [FG] [EG][FA][GB] | [Ac]2 [GBc] [FAc]2 z | [=EG][EG][EG] [EG]2 z | %69
 [Acf][Acf][Acf] [Acf]2 z | [Ac]2 z [Ac]3 | x3[K:bass] x3 | x6 | x3[K:treble] x3 | x6 | x6 | x6 | %77
 x6 | [cf=a]2 [fa] [fa]2 f | [f=a]2 [fa] [fa]2 [fa] | [=eg]2 [eg] [eg]2 e | %81
 [=eg]2 [eg] [eg]2 [eg] | [=egc']2 [gc'] [gc']2 [gc'] | [gc']2 [gc'] [gc']2 [gc'] | %84
 [=ac']2 [ac'] [ac']2 f | [f=a]2 [fa] [fa]2 [fa] | [f=a]2 [fa] [fa]2 f | [f=a]2 [fa] [fa]2 [fa] | %88
 [=eg]2 [eg] [eg]2 e | [=eg]2 [eg] [eg]2 [eg] | [=egc']2 [gc'] [gc']2 [gc'] | %91
 [c'=e']2 [c'e'] [c'e']2 g | [=ac']2 [ac'] [ac']2 [ac'] | x6 | [C=EG][CEG][CEG] [CEG]2 z | %95
 [Acf][Acf][Acf] [Acf]2 z | [=EG]2 [FG] [EG][FA][GB] | [Ac]2 [GBc] [FAc]2 z | %98
 [C=EG][CEG][CEG] [CEG]2 z | [Acf][Acf][Acf] [Acf]2 z | [Ac]2 z [Ac]3 | x3[K:bass] x3 | x6 | %103
 x3[K:treble] x3 | x6 | x6 | x6 | x6 | x6 | x6 | x6 | x6 | x6 | x6 | x6 | x6 | x6 | x6 | x6 | x6 | %120
 x6 | x6 | x6 | x6 | x6 | x6 | x6 | x6 | x6 | x6 | x6 | x6 | x6 | x6 | x6 | x6 | x6 | x6 | x6 | %139
 x6 | x6 | x6 | x6 | x6 | x6 | x6 | x6 | x6 | x6 | x6 | x6 | x6 | x6 | x6 | x6 | x6 | %156
 [=EG]2 z [EG_B]3 | x6 | [=EG]2 z [EG_B]3 | x6 | x6 | x6 | x6 | [GB]2 z [GB]3 | x6 | x6 | %166
 A2 A A2 A | E2 E E2 E | A2 A A2 A | E2 E A2 A | B2 B B2 B | B2 B G2 G | A2 A A2 A | A2 A A2 A | %174
 A2 A A2 A | E2 E E2 E | A2 A A2 A | E2 E F2 E | =D2 D D2 D | D2 D D2 D | C2 C C2 C | x6 | %182
 [EA]2 [EA] [EA]2 [EA] | E2 [CE] [CE]2 [CE] | [EA]2 [EA] [EA]2 [EA] | x6 | [GB]2 [GB] [GB]2 [GB] | %187
 x6 | [EA]2 [EA] [EA]2 [EA] | x6 | [EA]2 [EA] [EA]2 [EA] | E2 [CE] [CE]2 [CE] | %192
 [EA]2 [EA] [EA]2 [EA] | x6 | =D2 D D2 D | x6 | x6 | x6 |] %198
V:4
 x6 | x6 | x6 | x6 | x6 | x6 | x6 | x6 | x6 | x6 | x6 | x6 | x6 | x6 | x6 | x6 | x6 | x6 | x6 | %19
 x6 | x6 | x6 | z E,,F,, E,,2 z | B,,G,,B,, C,,=D,,=E,, | x6 | x6 | x6 | x6 | x6 | x6 | x6 | x6 | %32
 x6 | x6 | x6 | x6 | x6 | x6 | x6 | x6 | z [F,,A,,][F,,A,,] [F,,A,,][F,,A,,][F,,A,,] | x6 | %42
 z [F,,A,,][F,,A,,] [F,,A,,][F,,A,,][F,,A,,] | x6 | x6 | x6 | x6 | x6 | x6 | x6 | x6 | x6 | x6 | %53
 x6 | x6 | x6 | x6 | x6 | x6 | x6 | x6 | x6 | x6 | x6 | x6 | x6 | x6 | x6 | x6 | x6 | x6 | x6 | %72
 x6 | x6 | x6 | x6 | x6 | x6 | x6 | x6 | x6 | x6 | G,,2 z C,,2 z | =E,,2 z C,,2 z | x6 | x6 | %86
 F,,2 z C,,2 z | x6 | G,,2 z C,,2 z | x6 | G,,2 z C,,2 z | =E,,2 z C,,2 z | x6 | x6 | x6 | x6 | %96
 x6 | x6 | x6 | x6 | x6 | x6 | x6 | x6 | x6 | x6 | x6 | x6 | x6 | x6 | x6 | x6 | x6 | x6 | x6 | %115
 x6 | x6 | x6 | x6 | x6 | x6 | x6 | x6 | x6 | x6 | x6 | x6 | x6 | x6 | x6 | x6 | x6 | x6 | x6 | %134
 x6 | x6 | x6 | x6 | x6 | x6 | x6 | x6 | x6 | x6 | x6 | x6 | x6 | x6 | x6 | x6 | x6 | x6 | x6 | %153
 x6 | x6 | x6 | x6 | x6 | x6 | x6 | x6 | x6 | x6 | x6 | x6 | x6 | x6 | x6 | x6 | x6 | %170
 z2 G,, E,,2 z | x6 | A,,2 z C,3 | x6 | x6 | x6 | x6 | x6 | B,,2 z B,,2 z | E,,2 z E,,2 z | x6 | %181
 x6 | x6 | x6 | x6 | x6 | x6 | x6 | x6 | x6 | x6 | x6 | x6 | x6 | B,,2 A,, B,,2 G,, | %195
 E,,2 B,, G,,2 E,, | x6 | x6 |] %198

